X:11333
%5575
T:Fruja fruja Ciacio (M. Martinotti) - Mazurca
C:La Ciapa Rusa: Aji  & Safran
M:3/4
L:1/8
K:Cmaj
G3G FE|G3G ED|C3 E (3EDC|CG, CE GE|D3D (3A,DF|
D3F ~ED|1 E3 F (3GFE|DC B,D G2:|2 EC G,C (3G,CE|C6|]
|:DC B,G, B,D|DC B,G, (3B,CD|
